src/apple-podcast.svg

<svg viewBox="0 0 24 24" fill="none" xmlns="http://www.w3.org/2000/svg"><path d="M18.664 0H5.336C2.38901 0 0 2.38901 0 5.336V18.664C0 21.611 2.38901 24 5.336 24H18.664C21.611 24 24 21.611 24 18.664V5.336C24 2.38901 21.611 0 18.664 0Z" fill="url(#apple-podcast_svg__paint0_linear_337_609)"/><path d="M11.264 21.008C10.544 20.752 10.4 20.408 10.104 18.368C9.76001 16 9.68801 14.528 9.88801 14.064C10.152 13.448 10.864 13.104 11.856 13.096C12.848 13.096 13.56 13.448 13.824 14.064C14.024 14.528 13.952 16 13.608 18.368C13.376 20.024 13.248 20.448 12.928 20.72C12.7044 20.9143 12.4324 21.0444 12.1409 21.0965C11.8493 21.1486 11.549 21.1208 11.272 21.016L11.264 21.008ZM8.20801 18.576C7.01649 18.0113 5.9756 17.1725 5.17051 16.1282C4.36542 15.084 3.81902 13.864 3.57601 12.568C3.43201 11.864 3.41601 10.176 3.54401 9.52798C3.8389 7.91011 4.60089 6.41394 5.73601 5.22399C6.51672 4.37964 7.46491 3.70735 8.52004 3.25003C9.57517 2.79272 10.7141 2.56043 11.864 2.56799C14.2 2.56799 16.312 3.47199 17.92 5.15199C19.1051 6.35389 19.895 7.889 20.184 9.55198C20.304 10.136 20.304 11.744 20.192 12.408C19.9304 13.8987 19.2757 15.2926 18.2955 16.4458C17.3153 17.599 16.0451 18.4696 14.616 18.968C14.536 18.968 14.52 18.88 14.56 18.504C14.64 17.912 14.704 17.792 15.04 17.648C16.0283 17.1588 16.8989 16.4614 17.5922 15.6039C18.2854 14.7463 18.7848 13.7488 19.056 12.68C19.264 11.856 19.24 10.024 19.008 9.17598C18.6517 7.85385 17.9385 6.6552 16.9466 5.71124C15.9547 4.76728 14.7222 4.11437 13.384 3.82399C12.6 3.66399 11.176 3.66399 10.384 3.82399C9.01837 4.12847 7.76475 4.80791 6.76414 5.7859C5.76354 6.7639 5.05562 8.00166 4.72001 9.35998C4.53601 10.112 4.53601 11.944 4.72001 12.696C4.99063 13.7671 5.48962 14.767 6.1828 15.6273C6.87597 16.4875 7.74694 17.1878 8.73601 17.68C9.07201 17.824 9.14401 17.944 9.21601 18.536C9.24801 18.896 9.24001 19 9.15201 19C9.09601 19 8.68801 18.824 8.25601 18.616L8.20801 18.576ZM8.24001 15.328C7.32745 14.5366 6.675 13.4882 6.36801 12.32C6.18272 11.4225 6.18544 10.4964 6.37601 9.59998C6.63173 8.66915 7.113 7.81571 7.77721 7.11523C8.44141 6.41474 9.26807 5.88881 10.184 5.58399C11.1383 5.33923 12.1338 5.30104 13.104 5.47199C14.4624 5.78842 15.6577 6.59156 16.464 7.72956C17.2703 8.86756 17.6318 10.2616 17.48 11.648C17.3798 12.4623 17.1031 13.245 16.6692 13.9414C16.2354 14.6377 15.6548 15.2311 14.968 15.68C14.944 15.68 14.92 15.408 14.92 15.08V14.48L15.336 13.984C15.8632 13.3726 16.2187 12.6323 16.3661 11.8386C16.5135 11.0449 16.4476 10.2263 16.175 9.46643C15.9025 8.70656 15.4331 8.03266 14.8148 7.51359C14.1966 6.99451 13.4516 6.64888 12.656 6.51199C12.016 6.39999 11.88 6.39999 11.216 6.51199C10.4081 6.62908 9.64663 6.96167 9.01168 7.4748C8.37674 7.98792 7.89175 8.66262 7.60771 9.42798C7.32367 10.1933 7.25106 11.0211 7.39752 11.8242C7.54398 12.6273 7.90409 13.3762 8.44001 13.992L8.84001 14.48V15.088C8.84001 15.424 8.81601 15.696 8.78401 15.696C8.75201 15.696 8.52001 15.536 8.27201 15.336L8.24001 15.328ZM11.016 12.056C10.6768 11.9048 10.3905 11.6557 10.1938 11.3407C9.99709 11.0257 9.89897 10.6591 9.91201 10.288C9.91201 9.55198 10.32 8.91998 11.032 8.54398C11.472 8.30398 12.264 8.30398 12.712 8.54398C13.21 8.8139 13.5831 9.26735 13.752 9.80798C14.216 11.384 12.552 12.768 11.032 12.056H11.016Z" fill="white"/><path d="M11.992 12.368C13.0922 12.368 13.984 11.4761 13.984 10.376C13.984 9.27582 13.0922 8.38397 11.992 8.38397C10.8918 8.38397 10 9.27582 10 10.376C10 11.4761 10.8918 12.368 11.992 12.368Z" fill="white"/><path d="M12.184 13.144C12.32 13.16 12.592 13.192 12.848 13.28C13.104 13.36 13.336 13.48 13.52 13.608C13.696 13.744 13.824 13.872 13.904 14.032C13.984 14.192 14.024 14.392 14.048 14.704C14.064 15.024 14.064 15.456 13.992 16.272C13.912 17.08 13.776 18.272 13.664 19.04C13.621 19.5037 13.5216 19.9604 13.368 20.4C13.2846 20.6109 13.1465 20.7959 12.968 20.936C12.8244 21.05 12.658 21.1319 12.48 21.176C12.312 21.208 12.16 21.208 12.016 21.208C11.872 21.208 11.736 21.208 11.552 21.168C11.368 21.128 11.128 21.056 10.952 20.912C10.7611 20.7471 10.6222 20.5303 10.552 20.288C10.4237 19.8788 10.3353 19.4582 10.288 19.032C10.192 18.376 10.064 17.4 9.98403 16.656C9.90403 15.912 9.87203 15.4 9.86403 15.056C9.84865 14.8282 9.8648 14.5994 9.91203 14.376C9.94943 14.2191 10.0144 14.0701 10.104 13.936C10.2761 13.6925 10.5192 13.5081 10.8 13.408C10.936 13.352 11.104 13.304 11.312 13.264L11.88 13.168C12.008 13.152 12.008 13.152 12.144 13.168L12.184 13.144Z" fill="white"/><defs><linearGradient id="apple-podcast_svg__paint0_linear_337_609" x1="11.976" y1="24.304" x2="11.776" y2="-3.48071e-07" gradientUnits="userSpaceOnUse"><stop stop-color="#822CBE"/><stop offset="1" stop-color="#D772FB"/></linearGradient></defs></svg>

<svg viewBox="0 0 24 24" fill="none" xmlns="http://www.w3.org/2000/svg"><path d="M18.664 0H5.336A5.336 5.336 0 0 0 0 5.336v13.328A5.336 5.336 0 0 0 5.336 24h13.328A5.336 5.336 0 0 0 24 18.664V5.336A5.336 5.336 0 0 0 18.664 0Z" fill="url(#apple-podcast_svg__paint0_linear_337_609)"/><path d="M11.264 21.008c-.72-.256-.864-.6-1.16-2.64-.344-2.368-.416-3.84-.216-4.304.264-.616.976-.96 1.968-.968.992 0 1.704.352 1.968.968.2.464.128 1.936-.216 4.304-.232 1.656-.36 2.08-.68 2.352a1.64 1.64 0 0 1-1.656.296l-.008-.008Zm-3.056-2.432a8.352 8.352 0 0 1-4.632-6.008c-.144-.704-.16-2.392-.032-3.04a8.424 8.424 0 0 1 2.192-4.304 8.272 8.272 0 0 1 6.128-2.656c2.336 0 4.448.904 6.056 2.584a8.288 8.288 0 0 1 2.264 4.4c.12.584.12 2.192.008 2.856a8.504 8.504 0 0 1-5.576 6.56c-.08 0-.096-.088-.056-.464.08-.592.144-.712.48-.856a7.641 7.641 0 0 0 4.016-4.968c.208-.824.184-2.656-.048-3.504a7.464 7.464 0 0 0-5.624-5.352c-.784-.16-2.208-.16-3 0A7.52 7.52 0 0 0 4.72 9.36c-.184.752-.184 2.584 0 3.336a7.664 7.664 0 0 0 4.016 4.984c.336.144.408.264.48.856.032.36.024.464-.064.464-.056 0-.464-.176-.896-.384l-.048-.04Zm.032-3.248a6 6 0 0 1-1.872-3.008 6.632 6.632 0 0 1 .008-2.72 5.872 5.872 0 0 1 3.808-4.016 6.92 6.92 0 0 1 2.92-.112 5.704 5.704 0 0 1 4.376 6.176 5.64 5.64 0 0 1-2.512 4.032c-.024 0-.048-.272-.048-.6v-.6l.416-.496a4.56 4.56 0 0 0-2.68-7.472c-.64-.112-.776-.112-1.44 0a4.544 4.544 0 0 0-2.776 7.48l.4.488v.608c0 .336-.024.608-.056.608s-.264-.16-.512-.36l-.032-.008Zm2.776-3.272a1.864 1.864 0 0 1-1.104-1.768c0-.736.408-1.368 1.12-1.744.44-.24 1.232-.24 1.68 0 .498.27.871.723 1.04 1.264.464 1.576-1.2 2.96-2.72 2.248h-.016Z" fill="white"/><path d="M11.992 12.368a1.992 1.992 0 1 0 0-3.984 1.992 1.992 0 0 0 0 3.984Zm.192.776c.136.016.408.048.664.136.256.08.488.2.672.328.176.136.304.264.384.424.08.16.12.36.144.672.016.32.016.752-.056 1.568-.08.808-.216 2-.328 2.768-.043.464-.142.92-.296 1.36a1.28 1.28 0 0 1-.4.536 1.28 1.28 0 0 1-.488.24c-.168.032-.32.032-.464.032-.144 0-.28 0-.464-.04s-.424-.112-.6-.256a1.304 1.304 0 0 1-.4-.624 6.65 6.65 0 0 1-.264-1.256 70.615 70.615 0 0 1-.304-2.376 19.766 19.766 0 0 1-.12-1.6 2.48 2.48 0 0 1 .048-.68 1.36 1.36 0 0 1 .192-.44c.172-.243.415-.428.696-.528.136-.056.304-.104.512-.144l.568-.096c.128-.016.128-.016.264 0l.04-.024Z" fill="white"/><defs><linearGradient id="apple-podcast_svg__paint0_linear_337_609" x1="11.976" y1="24.304" x2="11.776" y2="-3.48071e-07" gradientUnits="userSpaceOnUse"><stop stop-color="#822CBE"/><stop offset="1" stop-color="#D772FB"/></linearGradient></defs></svg>
